src/assets/icons/wrench.svg

<svg width="24" height="24" viewBox="0 0 24 24" fill="none" xmlns="http://www.w3.org/2000/svg">
<g clip-path="url(#clip0)">
<path d="M13.3097 7.17551C13.1724 7.03821 12.9498 7.03816 12.8125 7.17546L12.4262 7.56175C12.2889 7.69905 12.2889 7.92166 12.4261 8.05891C12.4948 8.12758 12.5848 8.16189 12.6748 8.16189C12.7647 8.16189 12.8547 8.12758 12.9234 8.05896L13.3097 7.67266C13.447 7.53536 13.447 7.31276 13.3097 7.17551Z" fill="white"/>
<path d="M13.6335 9.12065C13.7234 9.12065 13.8134 9.08634 13.8821 9.01767L14.2684 8.63132C14.4057 8.49403 14.4057 8.27142 14.2683 8.13417C14.1311 7.99692 13.9085 7.99687 13.7712 8.13422L13.3849 8.52056C13.2476 8.65786 13.2476 8.88046 13.3849 9.01771C13.4535 9.08629 13.5435 9.12065 13.6335 9.12065Z" fill="white"/>
<path d="M14.7299 9.09292L14.3436 9.47927C14.2063 9.61657 14.2063 9.83917 14.3437 9.97642C14.4123 10.045 14.5023 10.0794 14.5923 10.0794C14.6822 10.0794 14.7722 10.045 14.8409 9.97638L15.2272 9.59003C15.3645 9.45274 15.3645 9.23013 15.2271 9.09288C15.0899 8.95563 14.8673 8.95558 14.7299 9.09292Z" fill="white"/>
<path d="M15.3023 10.9352C15.371 11.0038 15.461 11.0382 15.5509 11.0382C15.6409 11.0382 15.7309 11.0038 15.7996 10.9352L16.1859 10.5489C16.3232 10.4115 16.3232 10.189 16.1859 10.0517C16.0486 9.91442 15.826 9.91442 15.6887 10.0517L15.3024 10.438C15.165 10.5753 15.165 10.7979 15.3023 10.9352Z" fill="white"/>
<path d="M2.90124 19.963L2.25255 20.6116C2.1152 20.7489 2.1152 20.9715 2.25251 21.1088C2.38976 21.2461 2.61238 21.2462 2.74969 21.1088L3.39837 20.4602C3.53572 20.3229 3.53572 20.1003 3.39842 19.963C3.26111 19.8258 3.03854 19.8257 2.90124 19.963Z" fill="white"/>
<path d="M16.3497 17.3265L14.2493 16.1139C14.014 15.978 13.7218 15.978 13.4865 16.1139L11.386 17.3265C11.1508 17.4624 11.0046 17.7155 11.0046 17.9872V20.4126C11.0046 20.6842 11.1508 20.9373 11.386 21.0732L13.4865 22.2859C13.6042 22.3538 13.736 22.3877 13.8679 22.3877C13.9998 22.3877 14.1317 22.3538 14.2494 22.2859L16.3498 21.0732C16.5851 20.9374 16.7312 20.6842 16.7312 20.4126V17.9872C16.7311 17.7155 16.585 17.4624 16.3497 17.3265ZM16.028 20.4126C16.028 20.4338 16.0165 20.4537 15.9981 20.4643L13.8977 21.677C13.8793 21.6876 13.8564 21.6876 13.838 21.677L11.7376 20.4643C11.7192 20.4537 11.7077 20.4339 11.7077 20.4126V17.9872C11.7077 17.966 11.7192 17.9462 11.7376 17.9355L13.838 16.7229C13.8472 16.7176 13.8576 16.7149 13.8679 16.7149C13.8782 16.7149 13.8885 16.7176 13.8977 16.7229L15.9982 17.9355C16.0166 17.9462 16.028 17.9659 16.028 17.9872V20.4126H16.028Z" fill="white"/>
<path d="M13.8679 17.9022C13.1524 17.9022 12.5702 18.4843 12.5702 19.1999C12.5702 19.9155 13.1524 20.4976 13.8679 20.4976C14.5835 20.4976 15.1656 19.9155 15.1656 19.1999C15.1656 18.4843 14.5835 17.9022 13.8679 17.9022ZM13.8679 19.7944C13.5401 19.7944 13.2733 19.5277 13.2733 19.1999C13.2733 18.872 13.54 18.6053 13.8679 18.6053C14.1957 18.6053 14.4625 18.872 14.4625 19.1999C14.4625 19.5277 14.1957 19.7944 13.8679 19.7944Z" fill="white"/>
<path d="M19.839 16.3632C19.839 17.0788 20.4212 17.661 21.1367 17.661C21.8523 17.661 22.4344 17.0788 22.4344 16.3632C22.4344 15.6476 21.8523 15.0655 21.1367 15.0655C20.4212 15.0655 19.839 15.6476 19.839 16.3632ZM21.7312 16.3632C21.7312 16.6911 21.4645 16.9578 21.1367 16.9578C20.8088 16.9578 20.5421 16.6911 20.5421 16.3632C20.5421 16.0354 20.8088 15.7687 21.1367 15.7687C21.4645 15.7687 21.7312 16.0354 21.7312 16.3632Z" fill="white"/>
<path d="M23.6185 14.4899L21.5181 13.2773C21.2829 13.1415 20.9906 13.1414 20.7553 13.2773L18.6548 14.4899C18.4195 14.6258 18.2734 14.8789 18.2734 15.1506V17.5759C18.2734 17.8475 18.4195 18.1007 18.6548 18.2366L20.7552 19.4492C20.8729 19.5171 21.0048 19.5511 21.1367 19.5511C21.2686 19.5511 21.4005 19.5171 21.5181 19.4492L22.2716 19.0142C22.4398 18.9171 22.4974 18.7021 22.4003 18.5339C22.3033 18.3658 22.0881 18.3083 21.92 18.4053L21.1665 18.8403C21.1482 18.8509 21.1253 18.8509 21.1069 18.8403L19.0065 17.6276C18.988 17.617 18.9766 17.5972 18.9766 17.5759V15.1506C18.9766 15.1293 18.988 15.1095 19.0064 15.0988L21.107 13.8862C21.1253 13.8755 21.1482 13.8755 21.1665 13.8862L23.267 15.0988C23.2854 15.1095 23.2969 15.1293 23.2969 15.1506V17.5759C23.2969 17.5972 23.2854 17.617 23.267 17.6276L23.1408 17.7005C22.9726 17.7976 22.915 18.0126 23.0121 18.1807C23.1091 18.349 23.3242 18.4064 23.4923 18.3095L23.6186 18.2365C23.8539 18.1007 24 17.8475 24 17.5759V15.1506C24 14.8789 23.8539 14.6258 23.6185 14.4899Z" fill="white"/>
<path d="M15.1204 13.1297C17.2032 13.5618 19.3535 12.9275 20.8664 11.4146C22.6472 9.63393 23.1508 7.03788 22.3322 4.79116C22.291 4.67832 22.1951 4.59427 22.0778 4.5683C21.9606 4.54238 21.8382 4.57805 21.7532 4.66295L18.8653 7.5509L16.456 6.90536L15.8104 4.49607L16.1566 4.14988C16.2939 4.01253 16.2939 3.78996 16.1566 3.65266C16.0193 3.51545 15.7968 3.51535 15.6594 3.65266L15.1697 4.14238C15.0808 4.23126 15.0462 4.36069 15.0787 4.482L15.8294 7.28342C15.8619 7.40474 15.9567 7.49948 16.078 7.53201L18.8794 8.28265C19.0007 8.31509 19.1302 8.28054 19.2191 8.19171L21.838 5.57269C22.3181 7.47065 21.7699 9.51688 20.3693 10.9174C19.0298 12.257 17.1211 12.8267 15.2633 12.4413C14.2402 12.2291 13.1798 12.5779 12.496 13.3516L5.02901 21.7995C5.02793 21.8007 5.02685 21.802 5.02582 21.8032C4.79336 22.0736 4.51228 22.2858 4.19042 22.4339C4.01398 22.515 3.93677 22.7238 4.01792 22.9002C4.09915 23.0768 4.30799 23.1537 4.4842 23.0727C4.8978 22.8825 5.25889 22.6102 5.55745 22.2634L13.0229 13.8173C13.54 13.2321 14.3436 12.9685 15.1204 13.1297Z" fill="white"/>
<path d="M2.95991 22.6503C2.38 22.6032 1.83388 22.3506 1.4223 21.939C0.415383 20.9321 0.465541 19.2749 1.55815 18.3357C1.55937 18.3346 1.56064 18.3336 1.56181 18.3325L10.0097 10.8654C10.7834 10.1816 11.1322 9.12125 10.9201 8.09815C10.5347 6.24046 11.1043 4.33168 12.4439 2.99217C13.8444 1.59158 15.8905 1.0433 17.7886 1.52346L16.6533 2.65873C16.516 2.79608 16.516 3.01865 16.6533 3.15596C16.7907 3.29321 17.0132 3.29321 17.1505 3.15596L18.6983 1.60817C18.7833 1.52323 18.8189 1.40079 18.793 1.2835C18.767 1.16621 18.6829 1.07035 18.5701 1.02919C16.3231 0.210486 13.7274 0.714274 11.9467 2.4949C10.4391 4.00251 9.79791 6.15051 10.2316 8.24089C10.3926 9.0176 10.1292 9.8214 9.54407 10.3386L1.09787 17.8041C-0.29382 19.0023 -0.374683 21.1364 0.925076 22.4361C1.45451 22.9656 2.15696 23.2906 2.90301 23.3511C3.09605 23.3667 3.26611 23.2232 3.28187 23.0291C3.29762 22.8356 3.15347 22.666 2.95991 22.6503Z" fill="white"/>
</g>
<defs>
<clipPath id="clip0">
<rect width="24" height="24" fill="white"/>
</clipPath>
</defs>
</svg>

<svg xmlns="http://www.w3.org/2000/svg" width="24" height="24" fill="none" xmlns:v="https://vecta.io/nano"><g clip-path="url(#A)" fill="#fff"><path d="M13.31 7.176a.35.35 0 0 0-.497 0l-.386.386a.35.35 0 1 0 .498.497l.386-.386a.35.35 0 0 0 0-.497zm.324 1.945a.35.35 0 0 0 .249-.103l.386-.386a.351.351 0 1 0-.497-.497l-.386.386a.35.35 0 0 0 .249.6zm1.096-.028l-.386.386a.35.35 0 1 0 .498.497l.386-.386a.351.351 0 1 0-.497-.497zm.572 1.842a.35.35 0 0 0 .497 0l.386-.386a.351.351 0 1 0-.497-.497l-.386.386a.35.35 0 0 0 0 .497zM2.901 19.963l-.649.649a.351.351 0 1 0 .497.497l.649-.649a.351.351 0 1 0-.497-.497zm13.449-2.636l-2.1-1.213c-.235-.136-.527-.136-.763 0l-2.101 1.213c-.235.136-.381.389-.381.661v2.425c0 .272.146.525.381.661l2.101 1.213c.118.068.25.102.381.102a.76.76 0 0 0 .381-.102l2.1-1.213c.235-.136.381-.389.381-.661v-2.425c0-.272-.146-.525-.382-.661zm-.322 3.086a.06.06 0 0 1-.03.052l-2.1 1.213a.06.06 0 0 1-.06 0l-2.1-1.213a.06.06 0 0 1-.03-.052v-2.425a.06.06 0 0 1 .03-.052l2.1-1.213a.06.06 0 0 1 .06 0l2.101 1.213a.06.06 0 0 1 .03.052v2.425h0zm-2.16-2.511A1.3 1.3 0 0 0 12.57 19.2a1.3 1.3 0 0 0 1.298 1.298 1.3 1.3 0 0 0 1.298-1.298 1.3 1.3 0 0 0-1.298-1.298zm0 1.892c-.328 0-.595-.267-.595-.594s.267-.595.595-.595.595.267.595.595-.267.595-.595.595zm5.971-3.431a1.3 1.3 0 0 0 1.298 1.298 1.3 1.3 0 0 0 1.298-1.298 1.3 1.3 0 0 0-1.298-1.298 1.3 1.3 0 0 0-1.298 1.298zm1.892 0c0 .328-.267.595-.594.595s-.595-.267-.595-.595.267-.594.595-.594.595.267.595.594zm1.888-1.873l-2.1-1.213c-.235-.136-.527-.136-.763 0l-2.1 1.213c-.235.136-.381.389-.381.661v2.425c0 .272.146.525.381.661l2.1 1.213c.118.068.25.102.382.102a.76.76 0 0 0 .381-.102l.753-.435a.35.35 0 1 0-.351-.609l-.754.435a.06.06 0 0 1-.06 0l-2.1-1.213c-.018-.011-.03-.03-.03-.052v-2.425a.06.06 0 0 1 .03-.052l2.101-1.213c.018-.011.041-.011.059 0l2.101 1.213a.06.06 0 0 1 .03.052v2.425a.06.06 0 0 1-.03.052l-.126.073a.352.352 0 0 0 .352.609l.126-.073c.235-.136.381-.389.381-.661v-2.425c0-.272-.146-.525-.381-.661zm-8.499-1.36c2.083.432 4.233-.202 5.746-1.715 1.781-1.781 2.284-4.377 1.466-6.623a.35.35 0 0 0-.254-.223c-.117-.026-.24.01-.325.095l-2.888 2.888-2.409-.646-.646-2.409.346-.346a.351.351 0 1 0-.497-.497l-.49.49a.35.35 0 0 0-.091.34l.751 2.801a.35.35 0 0 0 .249.249l2.801.751c.121.032.251-.002.34-.091l2.619-2.619a5.63 5.63 0 0 1-1.469 5.345 5.59 5.59 0 0 1-5.106 1.524 2.91 2.91 0 0 0-2.767.91L5.029 21.8c-.236.274-.517.486-.839.634a.352.352 0 0 0 .294.639c.414-.19.775-.463 1.073-.809l7.465-8.446c.517-.585 1.321-.849 2.098-.688zM2.96 22.65a2.46 2.46 0 0 1-1.538-.711c-1.007-1.007-.957-2.664.136-3.603l8.452-7.47a2.91 2.91 0 0 0 .91-2.767 5.59 5.59 0 0 1 1.524-5.106 5.63 5.63 0 0 1 5.345-1.469l-1.135 1.135a.35.35 0 0 0 0 .497c.137.137.36.137.497 0l1.548-1.548a.35.35 0 0 0-.128-.579C16.324.21 13.728.714 11.948 2.495a6.29 6.29 0 0 0-1.715 5.746c.161.777-.102 1.581-.688 2.098l-8.446 7.465c-1.392 1.198-1.473 3.332-.173 4.632a3.16 3.16 0 0 0 1.978.915.352.352 0 1 0 .057-.701z"/></g><defs><clipPath id="A"><path fill="#fff" d="M0 0h24v24H0z"/></clipPath></defs></svg>
